folder-star-multiple.svg

<svg fill="currentColor" viewBox="0 0 24 24"><path d="M2 6H0v14c0 1.11.895 2 2 2h18v-2H2zm20-2h-8l-2-2H6c-1.11 0-2 .89-2 2v12a2 2 0 0 0 2 2h16a2 2 0 0 0 2-2V6c0-1.11-.89-2-2-2m-2.06 11L17 13.27 14.06 15l.78-3.34-2.59-2.24 3.41-.29L17 6l1.34 3.13 3.41.29-2.59 2.24z"/></svg>

<svg  viewBox="0 0 24 24" fill="currentColor"><path  d="M2 6H0V20C0 21.11 .895 22 2 22H20V20H2V6M22 4H14L12 2H6C4.89 2 4 2.89 4 4V16C4 17.1 4.89 18 6 18H22C23.11 18 24 17.1 24 16V6C24 4.89 23.11 4 22 4M19.94 15L17 13.27L14.06 15L14.84 11.66L12.25 9.42L15.66 9.13L17 6L18.34 9.13L21.75 9.42L19.16 11.66L19.94 15Z"/></svg>
